Numix/16/status/indicator-keyboard-Bs-3.svg

<?xml version="1.0" encoding="UTF-8" standalone="no"?>
<svg
   xmlns:dc="http://purl.org/dc/elements/1.1/"
   xmlns:cc="http://creativecommons.org/ns#"
   xmlns:rdf="http://www.w3.org/1999/02/22-rdf-syntax-ns#"
   xmlns:svg="http://www.w3.org/2000/svg"
   xmlns="http://www.w3.org/2000/svg"
   xmlns:sodipodi="http://sodipodi.sourceforge.net/DTD/sodipodi-0.dtd"
   xmlns:inkscape="http://www.inkscape.org/namespaces/inkscape"
   viewBox="0 0 16 16"
   id="svg2"
   version="1.1"
   inkscape:version="0.91 r13725"
   sodipodi:docname="indicator-keyboard-Bs-3.svg">
  <metadata
     id="metadata14">
    <rdf:RDF>
      <cc:Work
         rdf:about="">
        <dc:format>image/svg+xml</dc:format>
        <dc:type
           rdf:resource="http://purl.org/dc/dcmitype/StillImage" />
      </cc:Work>
    </rdf:RDF>
  </metadata>
  <defs
     id="defs12" />
  <sodipodi:namedview
     pagecolor="#ffffff"
     bordercolor="#666666"
     borderopacity="1"
     objecttolerance="10"
     gridtolerance="10"
     guidetolerance="10"
     inkscape:pageopacity="0"
     inkscape:pageshadow="2"
     inkscape:window-width="640"
     inkscape:window-height="480"
     id="namedview10"
     showgrid="false"
     inkscape:zoom="14.75"
     inkscape:cx="8"
     inkscape:cy="8"
     inkscape:window-x="65"
     inkscape:window-y="24"
     inkscape:window-maximized="0"
     inkscape:current-layer="svg2" />
  <path
     style="fill:#ececec;fill-opacity:1"
     d="M 1.5996094 0 C 0.71320937 2.9605947e-16 0 0.71320937 0 1.5996094 L 0 14.400391 C 2.9605947e-16 15.286791 0.71320937 16 1.5996094 16 L 14.400391 16 C 15.286791 16 16 15.286791 16 14.400391 L 16 1.5996094 C 16 0.71320937 15.286791 0 14.400391 0 L 1.5996094 0 z M 3.7890625 4.8046875 C 4.1250625 4.8046875 4.4421875 4.8327188 4.7421875 4.8867188 C 5.0481875 4.9407187 5.3149688 5.03025 5.5429688 5.15625 C 5.7709688 5.28225 5.9519844 5.4501562 6.0839844 5.6601562 C 6.2219844 5.8641563 6.2910156 6.1197813 6.2910156 6.4257812 C 6.2910156 6.7617812 6.2032969 7.0490625 6.0292969 7.2890625 C 5.8612969 7.5230625 5.6337031 7.6853906 5.3457031 7.7753906 C 5.5257031 7.8173906 5.6898438 7.8770781 5.8398438 7.9550781 C 5.9898437 8.0330781 6.1223281 8.1357188 6.2363281 8.2617188 C 6.3503281 8.3817188 6.4380469 8.5309375 6.4980469 8.7109375 C 6.5640469 8.8849375 6.5957031 9.0957969 6.5957031 9.3417969 C 6.5957031 9.9297971 6.3625313 10.379406 5.8945312 10.691406 C 5.4265313 10.997406 4.7026094 11.150391 3.7246094 11.150391 C 3.6226094 11.150391 3.5032344 11.144813 3.3652344 11.132812 C 3.2332344 11.126812 3.0951719 11.113703 2.9511719 11.095703 C 2.8131719 11.083703 2.6806875 11.068781 2.5546875 11.050781 C 2.4286875 11.026781 2.3224219 11.002516 2.2324219 10.978516 L 2.2324219 4.9765625 C 2.3404219 4.9465625 2.4597969 4.9222969 2.5917969 4.9042969 C 2.7237969 4.8802969 2.8580937 4.8616094 2.9960938 4.8496094 C 3.1400938 4.8316094 3.2781563 4.8204531 3.4101562 4.8144531 C 3.5481562 4.8084531 3.6750625 4.8046875 3.7890625 4.8046875 z M 3.7890625 5.3261719 C 3.5670625 5.3261719 3.3767031 5.3337031 3.2207031 5.3457031 C 3.0707031 5.3577031 2.94575 5.372625 2.84375 5.390625 L 2.84375 7.5859375 L 4.03125 7.5859375 C 4.25325 7.5859375 4.4641094 7.5710156 4.6621094 7.5410156 C 4.8601094 7.5050156 5.0298281 7.4453281 5.1738281 7.3613281 C 5.3238281 7.2713281 5.4413906 7.1537656 5.5253906 7.0097656 C 5.6093906 6.8597656 5.6523438 6.6713594 5.6523438 6.4433594 C 5.6523438 6.2393594 5.605625 6.0676875 5.515625 5.9296875 C 5.425625 5.7856875 5.2969063 5.668125 5.1289062 5.578125 C 4.9669063 5.488125 4.7729219 5.426625 4.5449219 5.390625 C 4.3169219 5.348625 4.0650625 5.3261719 3.7890625 5.3261719 z M 9.1328125 6.3359375 C 9.4508125 6.3359375 9.7120156 6.3620156 9.9160156 6.4160156 C 10.126016 6.4700156 10.273422 6.5185469 10.357422 6.5605469 L 10.222656 7.0820312 C 10.150656 7.0460313 10.027516 6.9975 9.8535156 6.9375 C 9.6855156 6.8775 9.4354688 6.8476562 9.1054688 6.8476562 C 8.9734687 6.8476562 8.8485156 6.8625781 8.7285156 6.8925781 C 8.6145156 6.9165781 8.511875 6.9595312 8.421875 7.0195312 C 8.331875 7.0735313 8.2610313 7.144375 8.2070312 7.234375 C 8.1530312 7.318375 8.125 7.4247812 8.125 7.5507812 C 8.125 7.6767813 8.1492656 7.7830469 8.1972656 7.8730469 C 8.2452656 7.9630469 8.3142969 8.0451875 8.4042969 8.1171875 C 8.5002969 8.1831875 8.6140938 8.2466406 8.7460938 8.3066406 C 8.8840937 8.3666406 9.0408438 8.4319063 9.2148438 8.5039062 C 9.3948438 8.5759063 9.5645625 8.6505156 9.7265625 8.7285156 C 9.8945625 8.8005156 10.041969 8.8900469 10.167969 8.9980469 C 10.293969 9.1000469 10.396609 9.2269531 10.474609 9.3769531 C 10.552609 9.5209531 10.591797 9.7037812 10.591797 9.9257812 C 10.591797 10.345781 10.431281 10.664859 10.113281 10.880859 C 9.8012811 11.096859 9.374125 11.203125 8.828125 11.203125 C 8.420125 11.203125 8.106625 11.167703 7.890625 11.095703 C 7.674625 11.029703 7.5309844 10.979359 7.4589844 10.943359 L 7.6113281 10.412109 C 7.6293281 10.424109 7.6685156 10.444609 7.7285156 10.474609 C 7.7885156 10.498609 7.8706563 10.528453 7.9726562 10.564453 C 8.0746563 10.594453 8.1940312 10.622484 8.3320312 10.646484 C 8.4760313 10.670484 8.642125 10.681641 8.828125 10.681641 C 9.164125 10.681641 9.4382969 10.627531 9.6542969 10.519531 C 9.8762969 10.405531 9.9882812 10.217125 9.9882812 9.953125 C 9.9882812 9.827125 9.9677813 9.7189063 9.9257812 9.6289062 C 9.8897813 9.5389063 9.8263281 9.4587187 9.7363281 9.3867188 C 9.6463281 9.3147187 9.5269531 9.2456875 9.3769531 9.1796875 C 9.2329531 9.1136875 9.0519375 9.0353125 8.8359375 8.9453125 C 8.6619375 8.8733125 8.4977969 8.8005156 8.3417969 8.7285156 C 8.1857969 8.6505156 8.0477344 8.56475 7.9277344 8.46875 C 7.8077344 8.36675 7.7106719 8.2454219 7.6386719 8.1074219 C 7.5666719 7.9694219 7.53125 7.8015156 7.53125 7.6035156 C 7.53125 7.2255156 7.6730781 6.9195469 7.9550781 6.6855469 C 8.2430781 6.4515469 8.6348125 6.3359375 9.1328125 6.3359375 z M 2.84375 8.1074219 L 2.84375 10.564453 C 2.93375 10.576453 3.0680469 10.591375 3.2480469 10.609375 C 3.4280469 10.621375 3.610875 10.628906 3.796875 10.628906 C 4.072875 10.628906 4.3396562 10.610219 4.5976562 10.574219 C 4.8616563 10.538219 5.0930156 10.472953 5.2910156 10.376953 C 5.4890156 10.280953 5.6475781 10.148469 5.7675781 9.9804688 C 5.8875781 9.8124687 5.9492187 9.5960312 5.9492188 9.3320312 C 5.9492188 9.0920313 5.9062656 8.8942812 5.8222656 8.7382812 C 5.7382656 8.5762813 5.6188906 8.449375 5.4628906 8.359375 C 5.3068906 8.263375 5.1147187 8.1981094 4.8867188 8.1621094 C 4.6647188 8.1261094 4.4146719 8.1074219 4.1386719 8.1074219 L 2.84375 8.1074219 z M 12.400391 8.7539062 C 12.603191 8.7539062 12.775622 8.7793781 12.919922 8.8300781 C 13.068122 8.8807781 13.191563 8.953275 13.289062 9.046875 C 13.386562 9.136575 13.459059 9.2463 13.505859 9.375 C 13.552659 9.4997999 13.576172 9.6350031 13.576172 9.7832031 C 13.576172 10.021103 13.511513 10.217041 13.382812 10.369141 C 13.258012 10.517341 13.095384 10.625106 12.896484 10.691406 C 13.005684 10.718706 13.111491 10.759859 13.212891 10.818359 C 13.318191 10.872959 13.412241 10.945456 13.494141 11.035156 C 13.576041 11.120956 13.642659 11.226762 13.693359 11.351562 C 13.744059 11.476362 13.767578 11.623316 13.767578 11.791016 C 13.767578 11.962616 13.738181 12.119372 13.675781 12.263672 C 13.617281 12.407972 13.52715 12.535331 13.40625 12.644531 C 13.28925 12.749831 13.138378 12.834084 12.955078 12.896484 C 12.771778 12.954984 12.5582 12.984375 12.3125 12.984375 C 12.1838 12.984375 12.064278 12.974578 11.955078 12.955078 C 11.849778 12.939478 11.755728 12.919884 11.673828 12.896484 C 11.591928 12.873084 11.521391 12.849572 11.462891 12.826172 C 11.408291 12.802772 11.367144 12.783178 11.339844 12.767578 L 11.439453 12.427734 C 11.462853 12.443334 11.502041 12.462928 11.556641 12.486328 C 11.611241 12.509728 11.6759 12.533241 11.75 12.556641 C 11.828 12.576141 11.914212 12.593775 12.007812 12.609375 C 12.105312 12.624975 12.211119 12.632813 12.324219 12.632812 C 12.694719 12.632812 12.959241 12.556397 13.119141 12.404297 C 13.279041 12.248297 13.359375 12.040597 13.359375 11.779297 C 13.359375 11.607697 13.326066 11.464663 13.259766 11.351562 C 13.197366 11.238462 13.109194 11.148331 12.996094 11.082031 C 12.886894 11.011831 12.757575 10.962847 12.609375 10.935547 C 12.465075 10.904347 12.312238 10.888672 12.148438 10.888672 L 12.089844 10.888672 L 12.089844 10.574219 L 12.224609 10.574219 C 12.329909 10.574219 12.435722 10.564422 12.544922 10.544922 C 12.658022 10.521522 12.759909 10.480375 12.849609 10.421875 C 12.943209 10.363375 13.019625 10.285 13.078125 10.1875 C 13.140525 10.09 13.171875 9.9646001 13.171875 9.8125 C 13.171875 9.6838 13.150322 9.5760281 13.107422 9.4863281 C 13.064522 9.3927281 13.005741 9.3182719 12.931641 9.2636719 C 12.861441 9.2090719 12.777188 9.1698844 12.679688 9.1464844 C 12.586087 9.1191844 12.488113 9.1054687 12.382812 9.1054688 C 12.172213 9.1054688 12.007625 9.1348594 11.890625 9.1933594 C 11.773625 9.2518594 11.677616 9.3067219 11.603516 9.3574219 L 11.439453 9.0585938 C 11.478453 9.0312937 11.527437 8.9999438 11.585938 8.9648438 C 11.648338 8.9297438 11.720834 8.8964344 11.802734 8.8652344 C 11.884634 8.8340344 11.974766 8.8085625 12.072266 8.7890625 C 12.173666 8.7656625 12.283391 8.7539062 12.400391 8.7539062 z "
     id="path4" />
</svg>

<svg xmlns="http://www.w3.org/2000/svg" viewBox="0 0 16 16">
 <path d="m 1.6 0 c -0.886 0 -1.6 0.713 -1.6 1.6 l 0 12.801 c 0 0.886 0.713 1.6 1.6 1.6 l 12.801 0 c 0.886 0 1.6 -0.713 1.6 -1.6 l 0 -12.801 c 0 -0.886 -0.713 -1.6 -1.6 -1.6 l -12.801 0 z m 2.189 4.805 c 0.336 0 0.653 0.028 0.953 0.082 c 0.306 0.054 0.573 0.144 0.801 0.27 c 0.228 0.126 0.409 0.294 0.541 0.504 c 0.138 0.204 0.207 0.46 0.207 0.766 c 0 0.336 -0.088 0.623 -0.262 0.863 c -0.168 0.234 -0.396 0.396 -0.684 0.486 c 0.18 0.042 0.344 0.102 0.494 0.18 c 0.15 0.078 0.282 0.181 0.396 0.307 c 0.114 0.12 0.202 0.269 0.262 0.449 c 0.066 0.174 0.098 0.385 0.098 0.631 c 0 0.588 -0.233 1.038 -0.701 1.35 c -0.468 0.306 -1.192 0.459 -2.17 0.459 c -0.102 0 -0.221 -0.006 -0.359 -0.018 c -0.132 -0.006 -0.27 -0.019 -0.414 -0.037 c -0.138 -0.012 -0.27 -0.027 -0.396 -0.045 c -0.126 -0.024 -0.232 -0.048 -0.322 -0.072 l 0 -6 c 0.108 -0.03 0.227 -0.054 0.359 -0.072 c 0.132 -0.024 0.266 -0.043 0.404 -0.055 c 0.144 -0.018 0.282 -0.029 0.414 -0.035 c 0.138 -0.006 0.265 -0.01 0.379 -0.01 z m 0 0.521 c -0.222 0 -0.412 0.008 -0.568 0.02 c -0.15 0.012 -0.275 0.027 -0.377 0.045 l 0 2.195 l 1.188 0 c 0.222 0 0.433 -0.015 0.631 -0.045 c 0.198 -0.036 0.368 -0.096 0.512 -0.18 c 0.15 -0.09 0.268 -0.208 0.352 -0.352 c 0.084 -0.15 0.127 -0.338 0.127 -0.566 c 0 -0.204 -0.047 -0.376 -0.137 -0.514 c -0.09 -0.144 -0.219 -0.262 -0.387 -0.352 c -0.162 -0.09 -0.356 -0.152 -0.584 -0.188 c -0.228 -0.042 -0.48 -0.064 -0.756 -0.064 z m 5.344 1.01 c 0.318 0 0.579 0.026 0.783 0.08 c 0.21 0.054 0.357 0.103 0.441 0.145 l -0.135 0.521 c -0.072 -0.036 -0.195 -0.085 -0.369 -0.145 c -0.168 -0.06 -0.418 -0.09 -0.748 -0.09 c -0.132 0 -0.257 0.015 -0.377 0.045 c -0.114 0.024 -0.217 0.067 -0.307 0.127 c -0.09 0.054 -0.161 0.125 -0.215 0.215 c -0.054 0.084 -0.082 0.19 -0.082 0.316 c 0 0.126 0.024 0.232 0.072 0.322 c 0.048 0.09 0.117 0.172 0.207 0.244 c 0.096 0.066 0.21 0.129 0.342 0.189 c 0.138 0.06 0.295 0.125 0.469 0.197 c 0.18 0.072 0.35 0.147 0.512 0.225 c 0.168 0.072 0.315 0.162 0.441 0.27 c 0.126 0.102 0.229 0.229 0.307 0.379 c 0.078 0.144 0.117 0.327 0.117 0.549 c 0 0.42 -0.161 0.739 -0.479 0.955 c -0.312 0.216 -0.739 0.322 -1.285 0.322 c -0.408 0 -0.722 -0.035 -0.938 -0.107 c -0.216 -0.066 -0.36 -0.116 -0.432 -0.152 l 0.152 -0.531 c 0.018 0.012 0.057 0.033 0.117 0.063 c 0.06 0.024 0.142 0.054 0.244 0.09 c 0.102 0.03 0.221 0.058 0.359 0.082 c 0.144 0.024 0.31 0.035 0.496 0.035 c 0.336 0 0.61 -0.054 0.826 -0.162 c 0.222 -0.114 0.334 -0.302 0.334 -0.566 c 0 -0.126 -0.02 -0.234 -0.063 -0.324 c -0.036 -0.09 -0.099 -0.17 -0.189 -0.242 c -0.09 -0.072 -0.209 -0.141 -0.359 -0.207 c -0.144 -0.066 -0.325 -0.144 -0.541 -0.234 c -0.174 -0.072 -0.338 -0.145 -0.494 -0.217 c -0.156 -0.078 -0.294 -0.164 -0.414 -0.26 c -0.12 -0.102 -0.217 -0.223 -0.289 -0.361 c -0.072 -0.138 -0.107 -0.306 -0.107 -0.504 c 0 -0.378 0.142 -0.684 0.424 -0.918 c 0.288 -0.234 0.68 -0.35 1.178 -0.35 z m -6.289 1.771 l 0 2.457 c 0.09 0.012 0.224 0.027 0.404 0.045 c 0.18 0.012 0.363 0.02 0.549 0.02 c 0.276 0 0.543 -0.019 0.801 -0.055 c 0.264 -0.036 0.495 -0.101 0.693 -0.197 c 0.198 -0.096 0.357 -0.228 0.477 -0.396 c 0.12 -0.168 0.182 -0.384 0.182 -0.648 c 0 -0.24 -0.043 -0.438 -0.127 -0.594 c -0.084 -0.162 -0.203 -0.289 -0.359 -0.379 c -0.156 -0.096 -0.348 -0.161 -0.576 -0.197 c -0.222 -0.036 -0.472 -0.055 -0.748 -0.055 l -1.295 0 z m 9.557 0.646 c 0.203 0 0.375 0.025 0.52 0.076 c 0.148 0.051 0.272 0.123 0.369 0.217 c 0.098 0.09 0.17 0.199 0.217 0.328 c 0.047 0.125 0.07 0.26 0.07 0.408 c 0 0.238 -0.065 0.434 -0.193 0.586 c -0.125 0.148 -0.287 0.256 -0.486 0.322 c 0.109 0.027 0.215 0.068 0.316 0.127 c 0.105 0.055 0.199 0.127 0.281 0.217 c 0.082 0.086 0.149 0.192 0.199 0.316 c 0.051 0.125 0.074 0.272 0.074 0.439 c 0 0.172 -0.029 0.328 -0.092 0.473 c -0.059 0.144 -0.149 0.272 -0.27 0.381 c -0.117 0.105 -0.268 0.19 -0.451 0.252 c -0.183 0.059 -0.397 0.088 -0.643 0.088 c -0.129 0 -0.248 -0.01 -0.357 -0.029 c -0.105 -0.016 -0.199 -0.035 -0.281 -0.059 c -0.082 -0.023 -0.152 -0.047 -0.211 -0.07 c -0.055 -0.023 -0.096 -0.043 -0.123 -0.059 l 0.1 -0.34 c 0.023 0.016 0.063 0.035 0.117 0.059 c 0.055 0.023 0.119 0.047 0.193 0.07 c 0.078 0.019 0.164 0.037 0.258 0.053 c 0.098 0.016 0.203 0.023 0.316 0.023 c 0.37 0 0.635 -0.076 0.795 -0.229 c 0.16 -0.156 0.24 -0.364 0.24 -0.625 c 0 -0.172 -0.033 -0.315 -0.1 -0.428 c -0.062 -0.113 -0.151 -0.203 -0.264 -0.27 c -0.109 -0.07 -0.239 -0.119 -0.387 -0.146 c -0.144 -0.031 -0.297 -0.047 -0.461 -0.047 l -0.059 0 l 0 -0.314 l 0.135 0 c 0.105 0 0.211 -0.01 0.32 -0.029 c 0.113 -0.023 0.215 -0.065 0.305 -0.123 c 0.094 -0.059 0.17 -0.137 0.229 -0.234 c 0.062 -0.098 0.094 -0.223 0.094 -0.375 c 0 -0.129 -0.022 -0.236 -0.064 -0.326 c -0.043 -0.094 -0.102 -0.168 -0.176 -0.223 c -0.07 -0.055 -0.154 -0.094 -0.252 -0.117 c -0.094 -0.027 -0.192 -0.041 -0.297 -0.041 c -0.211 0 -0.375 0.029 -0.492 0.088 c -0.117 0.059 -0.213 0.113 -0.287 0.164 l -0.164 -0.299 c 0.039 -0.027 0.088 -0.059 0.146 -0.094 c 0.062 -0.035 0.135 -0.068 0.217 -0.1 c 0.082 -0.031 0.172 -0.057 0.27 -0.076 c 0.101 -0.023 0.211 -0.035 0.328 -0.035 z" style="fill:#ececec;fill-opacity:1"/>
</svg>
